icons/clipboard-chevron-right.svg

<svg xmlns="http://www.w3.org/2000/svg" width="24" height="24" viewBox="0 0 24 24">
  <path d="M16,1 C16.5128358,1 16.9355072,1.38604019 16.9932723,1.88337887 L17,2 L17,3 L19,3 C20.1045695,3 21,3.8954305 21,5 L21,21 C21,22.1045695 20.1045695,23 19,23 L5,23 C3.8954305,23 3,22.1045695 3,21 L3,5 C3,3.8954305 3.8954305,3 5,3 L7,3 L7,2 C7,1.48716416 7.38604019,1.06449284 7.88337887,1.00672773 L8,1 L16,1 Z M11.6128994,10.2097046 C11.2206082,9.90467972 10.6533772,9.93240926 10.2928932,10.2928932 L10.2928932,10.2928932 L10.2097046,10.3871006 C9.90467972,10.7793918 9.93240926,11.3466228 10.2928932,11.7071068 L10.2928932,11.7071068 L12.585,14 L10.2928932,16.2928932 L10.2097046,16.3871006 C9.90467972,16.7793918 9.93240926,17.3466228 10.2928932,17.7071068 C10.6834175,18.0976311 11.3165825,18.0976311 11.7071068,17.7071068 L11.7071068,17.7071068 L14.7071068,14.7071068 L14.7902954,14.6128994 C15.0953203,14.2206082 15.0675907,13.6533772 14.7071068,13.2928932 L14.7071068,13.2928932 L11.7071068,10.2928932 Z M15,3 L9,3 L9,5 L15,5 L15,3 Z"/>
</svg>

<svg xmlns="http://www.w3.org/2000/svg" viewBox="0 0 24 24">
  <path d="M16 1a1 1 0 0 1 1 .88V3h2a2 2 0 0 1 2 2v16a2 2 0 0 1-2 2H5a2 2 0 0 1-2-2V5c0-1.1.9-2 2-2h2V2a1 1 0 0 1 .88-1H16zm-4.39 9.21a1 1 0 0 0-1.32.08l-.08.1a1 1 0 0 0 .08 1.32L12.6 14l-2.3 2.3-.08.09a1 1 0 0 0 1.5 1.32l3-3 .08-.1a1 1 0 0 0-.08-1.32l-3-3zM15 3H9v2h6V3z"/>
</svg>
